storage/app/icons/phosphoricons/regular/textbox.svg

<svg xmlns="http://www.w3.org/2000/svg" fill="currentColor" viewBox="0 0 256 256"><path d="M112 40a8 8 0 0 0-8 8v16H24A16 16 0 0 0 8 80v96a16 16 0 0 0 16 16h80v16a8 8 0 0 0 16 0V48a8 8 0 0 0-8-8M24 176V80h80v96Zm224-96v96a16 16 0 0 1-16 16h-88a8 8 0 0 1 0-16h88V80h-88a8 8 0 0 1 0-16h88a16 16 0 0 1 16 16M88 112a8 8 0 0 1-8 8h-8v24a8 8 0 0 1-16 0v-24h-8a8 8 0 0 1 0-16h32a8 8 0 0 1 8 8"/></svg>

<svg xmlns="http://www.w3.org/2000/svg" viewBox="0 0 256 256" fill="currentColor"><path d="M112,40a8,8,0,0,0-8,8V64H24A16,16,0,0,0,8,80v96a16,16,0,0,0,16,16h80v16a8,8,0,0,0,16,0V48A8,8,0,0,0,112,40ZM24,176V80h80v96ZM248,80v96a16,16,0,0,1-16,16H144a8,8,0,0,1,0-16h88V80H144a8,8,0,0,1,0-16h88A16,16,0,0,1,248,80ZM88,112a8,8,0,0,1-8,8H72v24a8,8,0,0,1-16,0V120H48a8,8,0,0,1,0-16H80A8,8,0,0,1,88,112Z"/></svg>
